X:47
T:Little Gipsee,The. TJD.47
M:2/4
L:1/8
Q:1/4=120
S:T.J.Dixon MS2, Lincolnshire, early 19thC
R:quick step
A:Lincolnshire, Holton le Moor
Z:vmp.R.Greig2010
K:G
DGGG|FAAA|GBBB|ABcc|BcdB|cAGF|EcAF|G2G2:|!
|:gggg|ffff|e(f/g/) fe|e2d2|bbbb|aaaa|gfge|e2d2|!
ecce|dBBd|cBAG|Bcd2|BcdB|cAGF|EcAF|G2G,2:|]

